public/images/case-studies/easylevel/tech-icon1.svg

<svg width="80" height="75" viewBox="0 0 80 75" fill="none" xmlns="http://www.w3.org/2000/svg">
<path d="M68.1516 13.6827C65.4215 12.1043 62.974 11.3365 60.8891 11.0272C60.3452 9.83809 59.0121 8.44104 56.3033 6.89468C47.4144 1.81837 38.5309 6.84136 38.5309 6.84136L26.6772 13.6827L32.6014 17.1006L44.4497 10.2593C44.4497 10.2593 47.4144 8.54768 50.3738 10.2593C53.3386 11.971 50.3738 13.6827 50.3738 13.6827L38.5255 20.524L44.4497 23.9419L56.3087 17.0953C56.4846 16.994 59.3534 15.4423 62.2221 17.1006C65.1869 18.8123 62.2221 20.5186 62.2221 20.5186L50.3738 27.3599L56.298 30.7832L71.111 22.2303C71.111 22.2303 77.0352 18.8123 68.1516 13.6827Z" fill="#F16822"/>
<path d="M26.6773 13.6826C26.6773 13.6826 23.7126 15.3943 23.7126 18.8122C23.7126 22.2356 23.7126 35.8968 23.7126 35.8968C23.7126 35.8968 23.7126 39.3201 20.7479 37.6085C17.7831 35.8968 17.7831 32.4788 17.7831 32.4788C17.7831 32.4788 17.7831 18.8122 17.7831 15.3943C17.7831 15.181 17.7938 14.973 17.8151 14.7704C18.1404 11.763 20.7425 10.2593 20.7425 10.2593L14.8184 6.8413C14.8184 6.8413 14.813 6.8413 14.8077 6.84663C14.6317 6.94794 11.8536 8.6596 11.8536 11.9709C11.8536 15.3943 11.8536 29.0555 11.8536 29.0555C11.8536 29.0555 11.8536 32.4788 8.88889 30.7672C5.92415 29.0555 5.92415 25.6375 5.92415 25.6375C5.92415 25.6375 5.92415 11.9709 5.92415 8.55296C5.92415 5.13497 8.88889 3.42332 8.88889 3.42332L2.96475 0C2.96475 0 0 1.71166 0 5.12964C0 8.55296 0 22.2142 0 22.2142C0 22.2142 4.0682e-06 32.4788 8.88889 37.6085C11.6137 39.1815 13.5013 39.3041 14.813 38.7229C16.1248 40.8185 18.0124 42.8768 20.7372 44.4498C29.6261 49.5794 29.6261 39.3201 29.6261 39.3201C29.6261 39.3201 29.6261 25.6535 29.6261 22.2356C29.6261 18.8122 32.5908 17.1059 32.5908 17.1059L26.6773 13.6826Z" fill="#808285"/>
<path d="M35.5659 29.1143L41.4901 32.5322V39.3735L35.5659 35.9556V29.1143Z" fill="#BCBEC0"/>
<path d="M50.374 27.3652C50.374 27.3652 47.4093 29.0769 47.4093 32.4949C47.4093 35.9182 47.4093 49.5795 47.4093 49.5795C47.4093 49.5795 47.4093 53.0028 44.4446 51.2911C41.4798 49.5795 41.4798 46.1615 41.4798 46.1615L35.5557 42.7382C35.5557 42.7382 35.5557 53.0028 44.4446 58.1324C53.3334 63.2621 53.3334 53.0028 53.3334 53.0028C53.3334 53.0028 53.3334 39.3362 53.3334 35.9182C53.3334 32.5002 56.2982 30.7886 56.2982 30.7886L50.374 27.3652Z" fill="#BCBEC0"/>
<path d="M68.1521 44.4658L80.0004 51.3071V44.4658L68.1521 37.6245C68.1521 37.6245 59.2632 32.6228 59.2632 42.7541C59.2632 52.8854 68.1521 58.1484 68.1521 58.1484L71.1168 59.86C71.1168 59.86 74.0815 61.5717 74.0815 64.9897C74.0815 68.413 71.1168 66.7013 71.1168 66.7013L59.2632 59.86V66.7013L71.1115 73.5426C71.1115 73.5426 80.0004 78.6723 80.0004 68.413C80.0004 58.1537 74.0762 54.7304 74.0762 54.7304L68.1521 51.3124C68.1521 51.3124 65.1873 49.6007 65.1873 46.1828C65.1873 42.7541 68.1521 44.4658 68.1521 44.4658Z" fill="#BCBEC0"/>
</svg>

<svg xmlns="http://www.w3.org/2000/svg" width="80" height="75" fill="none" xmlns:v="https://vecta.io/nano"><path d="M68.152 13.683c-2.73-1.578-5.178-2.346-7.263-2.655-.544-1.189-1.877-2.586-4.586-4.133-8.889-5.076-17.772-.053-17.772-.053l-11.854 6.841 5.924 3.418 11.848-6.841s2.965-1.712 5.924 0c2.965 1.712 0 3.423 0 3.423l-11.848 6.841 5.924 3.418 11.859-6.847c.176-.101 3.045-1.653 5.913.005 2.965 1.712 0 3.418 0 3.418L50.374 27.36l5.924 3.423 14.813-8.553s5.924-3.418-2.959-8.548z" fill="#f16822"/><path d="M26.677 13.683s-2.965 1.712-2.965 5.13v17.085s0 3.423-2.965 1.712-2.965-5.13-2.965-5.13V15.394c0-.213.011-.421.032-.624.325-3.007 2.927-4.511 2.927-4.511l-5.924-3.418c-.187.107-2.965 1.818-2.965 5.13v17.085s0 3.423-2.965 1.712-2.965-5.13-2.965-5.13V8.553c0-3.418 2.965-5.13 2.965-5.13L2.965 0S0 1.712 0 5.13v17.085s0 10.265 8.889 15.394c2.725 1.573 4.612 1.696 5.924 1.114 1.312 2.096 3.199 4.154 5.924 5.727 8.889 5.13 8.889-5.13 8.889-5.13V22.236c0-3.423 2.965-5.13 2.965-5.13l-5.914-3.423z" fill="#808285"/><path d="M35.566 29.114l5.924 3.418v6.841l-5.924-3.418v-6.841zm14.808-1.749s-2.965 1.712-2.965 5.13V49.58s0 3.423-2.965 1.712-2.965-5.13-2.965-5.13l-5.924-3.423s0 10.265 8.889 15.394 8.889-5.13 8.889-5.13V35.918c0-3.418 2.965-5.13 2.965-5.13l-5.924-3.423zm17.778 17.101L80 51.307v-6.841l-11.848-6.841s-8.889-5.002-8.889 5.13 8.889 15.394 8.889 15.394l2.965 1.712s2.965 1.712 2.965 5.13c0 3.423-2.965 1.712-2.965 1.712L59.263 59.86v6.841l11.848 6.841S80 78.672 80 68.413 74.076 54.73 74.076 54.73l-5.924-3.418s-2.965-1.712-2.965-5.13c0-3.429 2.965-1.717 2.965-1.717z" fill="#bcbec0"/></svg>
